X: 150998
T: O'Donovan's
S: Darley & McCall Collection
Z: B.Black
L: 1/8
M: 4/4
R: reel
K: F
Ac (3ccc cAcd|cfaf gfdf|Accd cAFA|GFGA G4|
Ac (3ccc cAcd|cfaf gfdf|Acfd cAFA|GFGA F4 :|
affa gece|gbag fddf|cf (3fff gf (3fff|cAfd cAGF|
Ac (3ccc cAFA|cAcd c4|f3d cAFA|GFGA F4 :|
